X:112
T: Alexius (2-14) S. 49
N: P0887
O: Lothringen
S: PINCK, Louis: Verklingende Weisen, Bd 2, Metz 1928]
R: geistliche, religise Lieder]
M: 2/4
L: 1/16
K: F
F2 | F2A2A2A2 | A4z2c2 | B4A2GB | A4z2
A2 | A2G2A2B2 | c2d2c2B2 | A4G3F | F4z2

@@@ Tune index: 7662
